src/main/resources/icons/AllIcons/actions/openNewTab_dark.svg

<!-- Copyright 2000-2021 JetBrains s.r.o. Use of this source code is governed by the Apache 2.0 license that can be found in the LICENSE file. -->
<svg xmlns="http://www.w3.org/2000/svg" width="16" height="16" viewBox="0 0 16 16">
  <g fill="none" fill-rule="evenodd">
    <path fill="#AFB1B3" d="M8.8,7.2 L11.5,7.2 L11.5,8.8 L8.8,8.8 L8.8,11.5 L7.2,11.5 L7.2,8.8 L4.5,8.8 L4.5,7.2 L7.2,7.2 L7.2,4.5 L8.8,4.5 L8.8,7.2 Z"/>
    <path fill="#AFB1B3" d="M15,11 C15,11.6531094 15.4174038,12.2087289 16,12.4146471 L16,13.9585208 C14.5811433,13.7204817 13.5,12.4864981 13.5,11 L13.5,4 C13.5,3.17157288 12.8345323,2.5 12.0136364,2.5 L4.08636364,2.5 C3.26546767,2.5 2.6,3.17157288 2.6,4 L2.6,11 C2.6,12.5212307 1.46774378,13.7780089 1.40443213e-14,13.9735657 L1.42108547e-14,12.4146471 C0.582596186,12.2087289 1,11.6531094 1,11 L1,4 C1,2.34314575 2.34314575,1 4,1 L12,1 C13.6568542,1 15,2.34314575 15,4 L15,11 Z"/>
  </g>
</svg>

<svg xmlns="http://www.w3.org/2000/svg" width="16" height="16" viewBox="0 0 16 16"><rect id="frame" width="16" height="16" fill="none"/><g fill="#AFB1B3" fill-rule="evenodd"><path d="M8.8 7.2h2.7v1.6H8.8v2.7H7.2V8.8H4.5V7.2h2.7V4.5h1.6v2.7z"/><path d="M15 11a1.5 1.5 0 0 0 1 1.415v1.544A3 3 0 0 1 13.5 11V4c0-.828-.665-1.5-1.486-1.5H4.086C3.266 2.5 2.6 3.172 2.6 4v7A3 3 0 0 1 0 13.974v-1.56A1.5 1.5 0 0 0 1 11V4a3 3 0 0 1 3-3h8a3 3 0 0 1 3 3v7z"/></g></svg>
